X:16499
T:The Blessings of Silver
C: Ed Reavy
B: Where_The_Shannon_Rises, By Ed Reavy
H:Use 9 11 10 8
M:C|
R:Reel
K:Gm
E:10
G/2A/2 | BJdBF DGGD | (3DEF CF DFCF | DGGA Bcdg |\
 {a}g^fdg fdcA | Bdce dcBA |*
E:9
DGBG ^FDCA, | DGGA Bcdg | ^fdcA G3 ::\
  g | bga^f gfdc | =Bcd=e fdcd | bgae ~f2 ge |*
E:10
fdcA BG+GG,+g |  (3bag (3ag^f gfdc | =Bcd=e ~fefa |\
gbag ^fag=e | =fdcA BGG :| G8||**


